!!!OTL: Der Jaeger auf koeniglicher Heide Es wollt' ein Jaeger jagen,
!!!ARE: Europa, Mitteleuropa, Deutschland (), Brandenburg, Cottbus, Peitz
!!!YOR: 7, S. 156
!!    1839 aufgezeichnet
!!!SCT: Q0150
!!!YEM: Copyright 1995, estate of Helmut Schaffrath.
**kern
*ICvox
*Ivox
!! Mixed meters:  3/8; 4/8
*M3/8
*k[b-]
*F:
{8c
=1
8f
8cc
16a
16g
16a
16g
=2
8f
8cc
8a}
=3
{16cc
16cc
=4
*M4/8
16dd
16dd
16cc
16cc
16b-
16b-
16a
16a
=5
*M3/8
4g
8r}
=6
{8c
=7
*M4/8
8f
8cc
16a
16g
16a
16g
=8
*M3/8
8f
8cc
8a}
=9
{16cc
16cc
=10
*M4/8
16dd
16dd
16cc
16cc
16b-
16b-
16a
16a
=11
4g
8.r}
{16cc
=12
*M3/8
16cc
16cc
24cc
24cc
24cc
16cc
16cc
=13
16a
16cc
8f
16r}
{16f
=14
16dd
16dd
24dd
24dd
24dd
16dd
16dd
=15
8cc
8b-
8a}
=16
{8f
=17
*M4/8
16g
16dd
16cc
16b-
8a
8g
=18
4f
8.r}
{16cc
=19
*M3/8
16cc
16cc
24cc
24cc
24cc
16cc
16cc
=20
16a
16cc
8f
16r}
{16f
=21
16dd
16dd
24dd
24dd
24dd
16dd
16dd
=22
8cc
8b-
8a}
=23
{8f
=24
*M4/8
16g
16dd
16cc
16b-
8a
8g
=25
4f
8r}
==
!!!AGN: Ballade, Verfuehrung, verlorene Ehre
!! Kleinere Varianten zu den folgenden Strophen abgedruckt.
!!    Mehrere Pausen an Zeilenschluessen korrigiert.
!!!ONB: ESAC (Essen Associative Code) Database: BALLADE
!!!AMT: irregular
!!!AIN: vox
!!!EED: Helmut Schaffrath
!!!EEV: 1.0
*-
